X:2
T:All Or Nothing At All
C:Arthur Altman
L:1/4
M:C
I:linebreak $
K:F
"Dm" A4 |"DmM" z A (3A B F |"Dm" A4 |"Dm6" z4 |"Dm" A2"DmM" A2 |$"Dm" A2"Dm6" (3A c F ||
[K:Eb]"Eb" G3/2 G/"Eb7" G2 |"Eb6" z2"Eb+" z2 |"Cm" G2 G2 |"Aø" G2"D7" (3=A ^F G Ox///||$
[K:F]"Gm" d3/2 d/ d2 |"Abo" z2 e d |"Gm" c c2 c |"Gb7" c c2 c |"F" c4 ||1"Eø" z G"A7" F E :|2$
[K:Db]"Ebm" z2"Ab7" z A ||"Db" f2 f f |"Ebm" f f (3f g d |"Db" f4 |"Ebo" z2 z A |$"Db" f f f f |
"Db+" g f e d |"Ebm" e4 |"Ab7" z2 z G |"Ebm" e3/2 e/ e2 |$"Ebm/Db" z e (3e f c |"Cø" e4 |
"F7" z2 d c |"Bbm" d2 d d ||$[K:F]"Gø" _d c"Gb7" z B |"F" c2"Bb" z2 |
"Eø" z G"Eb7" F"_D.C. al Coda" E ||$Ox/"Gm" d2"Gm/F" z2 |"Eø" e2"A7" z2 |"Dm" f4 |
"Gø" z f"Gb" (3f f f |"F6" f4 | z4 |]

